X:1
T: The Banks of Earn
C:Alexander Walker
R:Reel
Q:232
K:Em
M:4/4
L:1/8
|:e|E2GE BE Ge|FD AD BD FD|E2GE BE GA|Bg fd e3e|
E2GE BE Ge|FD AD BD FD|E2GE BE GA|Bg fd e3f|
ge Be Ge ge|fd Ad Ad fd|ge Be Ge BG|FB B,^D E3e|
ge Be Ge ge|fd Ad Fd fd|gf ed cB AG|FB B,^D E3:|
